applications/preferences-system-network-symbolic.svg

<svg xmlns="http://www.w3.org/2000/svg" width="16" height="16"><path d="M6 0c-.554 0-1 .446-1 1v4c0 .554.446 1 1 1h1v1H3a1 1 0 0 0-1 1v2H1c-.554 0-1 .446-1 1v4c0 .554.446 1 1 1h4c.554 0 1-.446 1-1v-4c0-.554-.446-1-1-1H4V9h8v1h-1c-.554 0-1 .446-1 1v4c0 .554.446 1 1 1h4c.554 0 1-.446 1-1v-4c0-.554-.446-1-1-1h-1V8a1 1 0 0 0-1-1H9V6h1c.554 0 1-.446 1-1V1c0-.554-.446-1-1-1H6z"/></svg>

<?xml version="1.0" encoding="UTF-8" standalone="no"?>
<!-- Created with Inkscape (http://www.inkscape.org/) -->

<svg
   xmlns:dc="http://purl.org/dc/elements/1.1/"
   xmlns:cc="http://creativecommons.org/ns#"
   xmlns:rdf="http://www.w3.org/1999/02/22-rdf-syntax-ns#"
   xmlns:svg="http://www.w3.org/2000/svg"
   xmlns="http://www.w3.org/2000/svg"
   xmlns:sodipodi="http://sodipodi.sourceforge.net/DTD/sodipodi-0.dtd"
   xmlns:inkscape="http://www.inkscape.org/namespaces/inkscape"
   width="16"
   height="16"
   id="svg4152"
   version="1.1"
   inkscape:version="0.92.2 5c3e80d, 2017-08-06"
   viewBox="0 0 16 16"
   sodipodi:docname="preferences-system-network-symbolic.svg">
  <defs
     id="defs4154" />
  <sodipodi:namedview
     id="base"
     pagecolor="#ededed"
     bordercolor="#000000"
     borderopacity="0.49803922"
     inkscape:pageopacity="0"
     inkscape:pageshadow="2"
     inkscape:zoom="31.392432"
     inkscape:cx="12.894423"
     inkscape:cy="6.2027818"
     inkscape:current-layer="layer1"
     showgrid="true"
     inkscape:grid-bbox="true"
     inkscape:document-units="px"
     inkscape:showpageshadow="false"
     borderlayer="true"
     inkscape:window-width="1920"
     inkscape:window-height="1012"
     inkscape:window-x="0"
     inkscape:window-y="32"
     inkscape:window-maximized="1">
    <inkscape:grid
       type="xygrid"
       id="grid4700"
       color="#000000"
       opacity="0.0627451"
       empcolor="#000000"
       empopacity="0.1254902"
       empspacing="4"
       spacingx="2"
       spacingy="2" />
  </sodipodi:namedview>
  <metadata
     id="metadata4157">
    <rdf:RDF>
      <cc:Work
         rdf:about="">
        <dc:format>image/svg+xml</dc:format>
        <dc:type
           rdf:resource="http://purl.org/dc/dcmitype/StillImage" />
        <dc:title />
      </cc:Work>
    </rdf:RDF>
  </metadata>
  <g
     id="layer1"
     inkscape:label="Layer 1"
     inkscape:groupmode="layer">
    <path
       style="opacity:1;fill:#000000;fill-opacity:1;stroke:none;stroke-width:4;stroke-linecap:round;stroke-linejoin:round;stroke-miterlimit:4;stroke-dasharray:none;stroke-opacity:1"
       d="M 6 0 C 5.446 0 5 0.446 5 1 L 5 5 C 5 5.554 5.446 6 6 6 L 7 6 L 7 7 L 3 7 A 1.0001 1.0001 0 0 0 2 8 L 2 10 L 1 10 C 0.446 10 0 10.446 0 11 L 0 15 C 0 15.554 0.446 16 1 16 L 5 16 C 5.554 16 6 15.554 6 15 L 6 11 C 6 10.446 5.554 10 5 10 L 4 10 L 4 9 L 8 9 L 12 9 L 12 10 L 11 10 C 10.446 10 10 10.446 10 11 L 10 15 C 10 15.554 10.446 16 11 16 L 15 16 C 15.554 16 16 15.554 16 15 L 16 11 C 16 10.446 15.554 10 15 10 L 14 10 L 14 8 A 1.0001 1.0001 0 0 0 13 7 L 9 7 L 9 6 L 10 6 C 10.554 6 11 5.554 11 5 L 11 1 C 11 0.446 10.554 0 10 0 L 6 0 z "
       id="rect814" />
  </g>
</svg>
